!!!OTL: Der betruegerische Freier Stolze Hendrich de woll freie gonn
!!!ARE: Europa, Mitteleuropa, Deutschland (BRD), Rheinprovinz, Duesseldorf, Itter
!!!YOR: 2, S. 132
!!    1908 aufgezeichnet (um 1860 bis 1880 allgemein gesungen)
!!!SCT: Q0042E
!!!YEM: Copyright 1995, estate of Helmut Schaffrath.
**kern
*ICvox
*Ivox
*M6/8
*k[f#c#g#]
*A:
{16e
16e
=1
4a
8b
4cc#
8f#
=2
4f#
8e
4e}
{8e
=3
4a
8b
4cc#
8a
=4
[4.b
4b]}
{8b
=5
4dd
8dd
4b
8a
=6
4cc#
8dd
4ee
8r}
=7
{4g#
8cc#
4b
8a
=8
4g#
8f#
4e}
{8e
=9
4a
8a
4a
8a
=10
4a
8cc#
4ee}
{16ee
16dd
=11
8cc#
8cc#
16cc#
16cc#
4b
8b
=12
[4.a
4a]}
==
!!!AGN: Ballade, Braut - Werbung, Betrug; tragisch, Vierte Zeile = Refrain.
!!!ONB: ESAC (Essen Associative Code) Database: BALLADE
!!!AMT: compound duple
!!!AIN: vox
!!!EED: Helmut Schaffrath
!!!EEV: 1.0
*-
